X: 1
T: the Road to Skye
R: jig
Z: John Chambers <jc:trillian.mit.edu>
B: Grumbling
M: 6/8
L: 1/8
K: A
E \
| "A"AGF ECE | Ace "D"f2e | "A"acc "F#m"cBc | "Bm"dFF "E7"F2E \
| "A"AGF ECE | Ace "D"f2e | "A"acc "E7"BAB | "A"cAA A2 ||
E \
| "A"Ace Ace | Ace "E7"dcB | "A"Ace "B7"fga | "E"gee "E7"efg \
| "A"aba "E"gag | "D"fgf "A"ecA | "E7"EGB dcB | "A"cAA A2 ||
E \
| "A"Ace Ace | Ace "E7"dcB | "A"Ace "B7"fga | "E"gee "E7"efg \
| "A"a3 "E"g3 | "D"f3 "A"e3 | "E7"EGB dcB | "A"cAA A2 ||
